forest.svg

<svg fill="currentColor" viewBox="0 0 24 24"><path d="M16 12 9 2 2 12h1.86L0 18h7v4h4v-4h7l-3.86-6zm4.14 0H22L15 2l-2.39 3.41L17.92 13h-1.95l3.22 5H24zM13 19h4v3h-4z"/></svg>

<svg  viewBox="0 0 24 24" fill="currentColor"><path  d="M16 12L9 2L2 12H3.86L0 18H7V22H11V18H18L14.14 12H16M20.14 12H22L15 2L12.61 5.41L17.92 13H15.97L19.19 18H24L20.14 12M13 19H17V22H13V19Z"/></svg>
